!!!COM: Haydn, Franz Joseph
!!!OTL: String Quartet in C Major
!!!OPS: Opus 20
!!!ONM: No. 2
!!!OMD: Menuetto: Allegretto
!!!OMV: 3
!!!SCT: H III:32
!!!SCA: Thematisch-bibliographisches Werkevererzeichnis (A. van Hoboken)
!!!YOR: Trautwein Edition
!!!ENC: Frances Bennion
!!!CDT: 1732/3/31/-1809/5/31/
!!!CNT: Oesterreich
!!!YEC: Copyright (c) 1994, 2000 Center for Computer Assisted Research in the Humanities
!!!YEM: Rights to all derivative editions reserved.
!!!YEM: Refer to licensing agreement for further details.
!!!YEN: United States of America
**tshrm	**tsroot	**kern	**kern	**kern	**kern
*k[]	*k[]	*k[]	*k[]	*k[]	*k[]
*	*	*C:	*C:	*C:	*C:
*	*	*clefF4	*clefC3	*clefG	*clefG
*M3/4	*M3/4	*M3/4	*M3/4	*M3/4	*M3/4
*C:	*C:	*	*	*	*
I	C	4c	[2.c	[2.g	[2.ee 2.g
.	C	4c	.	.	.
.	C	[4c	.	.	.
=2	=2	=2	=2	=2	=2
.	C	4c]	4c]	2.g_	4ee 4g]
ii	D	4d	4d	.	4ff
Vb	G	[4B	[4B	.	[4dd
=3	=3	=3	=3	=3	=3
.	G	4B]	4B]	2.g_	[4dd 4g]
I	C	4c	4c	.	4ee
.	C	[4e	[4e	.	[4gg
=4	=4	=4	=4	=4	=4
.	C	4e]	4e]	2.g_	4gg 4g]_
ii	D	4d	4d	.	4ff
I	C	[4c	[4c	.	[4ee
=5	=5	=5	=5	=5	=5
.	C	4c]	4c]	2.g]	4ee 4g]
Vb	G	4B	4B	.	4dd
I	C	4c	4c	.	4ee
=6	=6	=6	=6	=6	=6
V7	G	[2.G	[2.d	[2.b	[2.ff 2.g
=7	=7	=7	=7	=7	=7
.	r	2G]	2d]	2b]	2ff]
.	D	4r	4r	8dd	16ff
.	D	.	.	.	16ee
.	E	.	.	8ee	16ff
.	E	.	.	.	16gg
=8	=8	=8	=8	=8	=8
.	D	2.r	2.r	4ff	4aa
iii	E	.	.	4ee	4gg
ii	D	.	.	4dd	4ff
=9	=9	=9	=9	=9	=9
.	D	2.r	2.r	4dd	4ff
vib	A	.	.	4cc	4ee
VII	B	.	.	4b	4dd#
=10	=10	=10	=10	=10	=10
*G:	*G:	*	*	*	*
III	B	2.r	2.r	2.b	2.dd#
=11	=11	=11	=11	=11	=11
IV	C	4r	4r	4cc	4ee
.	C	4c	4c	4g	4ee
V7c	D	4A	4a	4cc	4ff#
=12	=12	=12	=12	=12	=12
Ib	G	4B	2g	2.dd	4gg
.	G	4B	.	.	4gg
Vb	D	4F#	4d	.	4aa
=13	=13	=13	=13	=13	=13
I	G	4G	4d	4dd	4bb
.	G	2r	2r	4gg	4bb
Chr	F	.	.	4aa	4ccc
=14	=14	=14	=14	=14	=14
Ib	G	2.r	2.r	4bb	4ddd
.	G	.	.	4gg	4bb
.	G	.	.	4r	4ggg
=15	=15	=15	=15	=15	=15
.	G	4G	4d	4b	2ddd
.	G	4G	4d	4b	.
.	G	4r	4r	4r	8fff#
.	G	.	.	.	8ggg
=16	=16	=16	=16	=16	=16
.	G	4G	4d	4b	4ddd
.	G	4G	4d	4b	4ddd
.	G	4r	4r	4r	8fff#
.	G	.	.	.	8ggg
=17	=17	=17	=17	=17	=17
.	G	2.r	2.r	2.r	4ddd
IVb	C	.	.	.	8eee
.	D	.	.	.	8fff#
I	G	.	.	.	8ggg
.	D	.	.	.	8aaa
=18	=18	=18	=18	=18	=18
.	G	2r	2r	2r	4bbb
.	r	.	.	.	4r
.	G	4BB	4B	4B	4B
=19	=19	=19	=19	=19	=19
IV	C	4C	4c	4c	4c
Vc	D	4AA	4A	4A	4A
.	D	4D	4d	4d	4d
=20	=20	=20	=20	=20	=20
I	G	4GG	4G	4G	4G
.	G	2r	2r	2r	2r
=21	=21	=21	=21	=21	=21
.	G	4GG	2.r	2.r	2G 2g]
.	r	2r	.	.	.
Vb	D	.	.	.	4f#
=22	=22	=22	=22	=22	=22
V7/IV	G	2.r	2r	2r	4f 4G
IVb	C	.	.	.	4e
ivb	C	.	4cc	4ff#	4e-
=23	=23	=23	=23	=23	=23
I	G	4GG	4b	4gg	4d 4G
.	G	2r	2r	2r	4g
Vb	D	.	.	.	4f#
=24	=24	=24	=24	=24	=24
V7/IV	G	2.r	2r	2r	4f 4G
IVb	C	.	.	.	4e
ivb	C	.	4cc	4ff#	4e-
=25	=25	=25	=25	=25	=25
I	G	4GG	4b	4gg	4d 4G
.	G	2r	2r	2r	4g
Vb	D	.	.	.	4f#
=26	=26	=26	=26	=26	=26
V7/IV	G	2.r	2r	2r	4f 4G
IVb	C	.	.	.	4e
ivb	C	.	4cc	4ff#	4e-
=27	=27	=27	=27	=27	=27
I	G	4GG	4b	4gg	4d 4G
.	G	2r	4r	4r	4g
ivb	C	.	4cc	4ff#	4e-
=28	=28	=28	=28	=28	=28
I	G	4GG	4b	4gg	4G 4d
IVc	r	2r	2r	2r	2r
=29	=29	=29	=29	=29	=29
*C:	*C:	*	*	*	*
I	C	4c	[2.c	[2.g	[2.ee 2.g
.	C	4c	.	.	.
.	C	[4c	.	.	.
=30	=30	=30	=30	=30	=30
.	C	4c]	4c]	2.g_	4ee 4g]_
ii	D	4d	4d	.	4ff
Vb	G	[4B	[4B	.	[4dd
=31	=31	=31	=31	=31	=31
.	G	4B]	4B]	2.g_	4dd 4g]_
I	C	4c	4c	.	4ee
.	C	[4e	[4e	.	[4gg
=32	=32	=32	=32	=32	=32
.	C	4e]	4e]	2.g_	4gg 4g]_
ii	D	4d	4d	.	4ff
I	C	[4c	[4c	.	[4ee
=33	=33	=33	=33	=33	=33
.	C	4c]	4c]	2.g]	4ee 4g]
Vb	G	4B	4B	.	4dd
I	C	4c	4c	.	4ee
=34	=34	=34	=34	=34	=34
V7	G	[2.G	[2.d	[2.b	[2.ff 2.g
=35	=35	=35	=35	=35	=35
.	r	2G]	2d]	2b]	2ff]
.	G	4r	4r	8dd	16ff
.	G	.	.	.	16ee
.	G	.	.	8ee	16ff
.	G	.	.	.	16gg
=36	=36	=36	=36	=36	=36
IV	F	2.r	2.r	4ff	4aa
Ib	C	.	.	4ee	4gg
ii	D	.	.	4dd	4ff
=37	=37	=37	=37	=37	=37
.	D	2.r	2.r	4dd	4ff
I	C	.	.	4cc	4ee
Chr	B-	.	.	4dd	4ff
=38	=38	=38	=38	=38	=38
Ib	C	4E	4c	4ee	4gg
.	C	2r	2r	8cc	8ee
.	B-	.	.	8dd	8ff
.	C	.	.	8ee	8gg
.	F	.	.	8ff	8aa
=39	=39	=39	=39	=39	=39
v	G	2r	2r	4gg	4bb-
IV	F	.	.	4ff	4aa
I	C	4c	4c	4ee	4gg
=40	=40	=40	=40	=40	=40
IV	F	4F	2c	4ff	4aa
.	F	4F	.	4cc	4aa
V7c	G	4D	4d	4ff	4bb
=41	=41	=41	=41	=41	=41
Ib	C	4E	2G	4ee	4ccc
.	C	4E	.	4gg	4ccc
V7b	G	4BB	4f	4gg	4ddd
=42	=42	=42	=42	=42	=42
I	C	4C	4e	4gg	4eee
.	C	2r	2r	4cc	4eee
ii	D	.	.	4dd	4fff
=43	=43	=43	=43	=43	=43
Ib	C	2.r	2.r	4ee	4ggg
.	C	.	.	2r	8ggg
.	C	.	.	.	8eee
IV	F	.	.	.	8aaa
.	F	.	.	.	8fff
=44	=44	=44	=44	=44	=44
I	C	4c	4g	4ee	2ggg
.	C	4c	4g	4ee	.
.	C	4r	4r	4r	4cccc
=45	=45	=45	=45	=45	=45
.	C	4c	4g	4ee	4ggg
.	C	4c	4g	4ee	4ggg
.	C	4r	4r	4r	4cccc
=46	=46	=46	=46	=46	=46
.	C	2r	2r	2r	2ggg
vi	A	4A	4a	4e	4cc
=47	=47	=47	=47	=47	=47
iib	D	4F	4f	4a	4dd
IV	F	4r	4r	4f	4ff
V7	G	4G	4f	4d	4b
=48	=48	=48	=48	=48	=48
I	C	4C	4e	4e	4cc
.	C	2r	2r	2r	2r
=49	=49	=49	=49	=49	=49
.	C	[2.C	[2.c	[2.G	[2.e
=50	=50	=50	=50	=50	=50
.	C	4C]	4c]	2.G_	4e]
V7c	G	4D	4d	.	4f
.	G	[4BB	[4B	.	[4d
=51	=51	=51	=51	=51	=51
.	r	4BB]	4B]	2.G_	4d]
.	C	4C	4c	.	4e
.	C	[4E	[4e	.	[4g
=52	=52	=52	=52	=52	=52
.	C	4E]	4e]	2.G_	4g]
V7c	G	4D	4d	.	4f
I	C	4C	4c	.	4e
=53	=53	=53	=53	=53	=53
.	C	4C	4c	2.G]	4e
Vb	G	4BB	4B	.	4d
I	C	4C	4c	.	4e
=54	=54	=54	=54	=54	=54
IV	F	2.FF	[2.F	2.A	2.f
=55	=55	=55	=55	=55	=55
V7	G	2.GG	2.F]	2.B	4d
.	G	.	.	.	4c
.	G	.	.	.	4d
=56	=56	=56	=56	=56	=56
I	C	4CC	4E	4c	4c
.	r	2r	2r	2r	2r
=57	=57	=57	=57	=57	=57
*	*	*c:	*c:	*c:	*c:
*Cm:	*Cm:	*	*	*	*
i	C	4c	[2.c	[2.e-	2.g
.	C	4B	.	.	.
.	C	4c	.	.	.
=58	=58	=58	=58	=58	=58
iv7b	F	4A-	2.c]	2.e-]	[2.f
.	F	4AA-	.	.	.
.	F	4A-	.	.	.
=59	=59	=59	=59	=59	=59
VII	B-	4B-	[2.B-	[2.d	2.f]
V7d/iii	B-	4A-	.	.	.
.	B-	4B-	.	.	.
=60	=60	=60	=60	=60	=60
V	G	4G	2.B-]	2.d]	[2.e-
.	G	4GG	.	.	.
.	G	4G	.	.	.
=61	=61	=61	=61	=61	=61
i	C	4A-	[2.A-	[2.c	2.e-]
.	C	4G	.	.	.
VI	A-	4A-	.	.	.
=62	=62	=62	=62	=62	=62
iv	F	4F	2.A-]	2.c]	[2.d
.	F	4FF	.	.	.
.	F	4F	.	.	.
=63	=63	=63	=63	=63	=63
V	G	4G	2.G	2.B	2.d]
V7d	G	4F	.	.	.
.	G	4G	.	.	.
=64	=64	=64	=64	=64	=64
ib	C	4E-	4c	4c	4e-
.	C	4c	4cc	4cc	4cc
VII	B-	4B-	4b-	4b-	4b-
=65	=65	=65	=65	=65	=65
ivb	F	4A-	4a-	4a-	4a-
V	G	4G	4g	4g	4g
IIb	D	4F#	4f#	4f#	4f#
=66	=66	=66	=66	=66	=66
V	G	4G	4g	4g	4g
.	G	4GG	4G	4G	4G
.	G	4r	4r	4b	4dd
=67	=67	=67	=67	=67	=67
i	C	2.r	2.r	4cc	4ee-
.	r	.	.	4r	4r
.	C	.	.	4f#	4cc
=68	=68	=68	=68	=68	=68
V	G	4GG	4G	4g	4b
iv	F	2r	2r	2r	2r
=69	=69	=69	=69	=69	=69
*Fm:	*Fm:	*	*	*	*
iv	B-	2.B-	2.b-	2.b-	2.b-
=70	=70	=70	=70	=70	=70
.	B-	2.D-	2.d-	2.d-	2.d-
=71	=71	=71	=71	=71	=71
V	C	4C	4c	4c	4c
iv	B-	4B-	4b-	4b-	4b-
ii	G	4G	4g	4g	4g
=72	=72	=72	=72	=72	=72
ib	F	4A-	4a-	4a-	4a-
Vb	C	4E	4e	4e	4e
i	F	4F	4f	4f	4f
=73	=73	=73	=73	=73	=73
V	C	2.c	2.cc	2.cc	2.cc
=74	=74	=74	=74	=74	=74
*G:	*G:	*	*	*	*
ivb	C	2.E-	2.e-	2.e-	2.e-
=75	=75	=75	=75	=75	=75
V	D	4D	4d	4d	4d
IV	C	4c	4cc	4cc	4cc
ii	A	4A	4a	4a	4a
=76	=76	=76	=76	=76	=76
Ib	G	4B	4b	4b	4b
Vb	D	4F#	4f#	4f#	4f#
I	G	4G	4g	4g	4g
=77	=77	=77	=77	=77	=77
.	G	4GG	4r	4r	[2.gg
.	G	2r	4d	4f#	.
ivb	C	.	4e-	4g	.
=78	=78	=78	=78	=78	=78
I	G	4GG	4r	4r	2.gg_
IV	C	2r	4c#	4e	.
V7c/IV	G	.	4d	4f	.
=79	=79	=79	=79	=79	=79
.	G	4GG	4r	4r	2.gg_
.	G	2r	4B	4d	.
iv	C	.	4c	4e-	.
=80	=80	=80	=80	=80	=80
I	G	4GG	4r	4r	2.gg]
V7/V	A	2r	4A	4c#	.
Ib	G	.	4B	4d	.
=81	=81	=81	=81	=81	=81
.	G	4GG	4r	4r	[2.g
iv	C	2r	4c	4e-	.
.	C	.	4c	4e-	.
=82	=82	=82	=82	=82	=82
I	G	4GG	4r	4r	2.g]
.	G	2r	4B	4d	.
.	G	.	4B	4d	.
=83	=83	=83	=83	=83	=83
.	G	4GG	4r	4r	2.f#
V7c	D	2r	4A	4c	.
.	D	.	4A	4c	.
=84	=84	=84	=84	=84	=84
I	G	4GG	4G	4B	4g
.	r	2r	2r	2r	2r
=85	=85	=85	=85	=85	=85
.	G	4GG	4G	4B	4g
.	r	2r	2r	2r	2r
=86	=86	=86	=86	=86	=86
.	G	4GG	4G	4B	4g
.	r	2r	2r	2r	2r
==	==	==	==	==	==
*-	*-	*-	*-	*-	*-
!!!RWG1: This file contains only pitch and duration data.
!!!RWG2: Transposing instruments are not transposed.
!!!RWG3: Spines may have incompatible meters.
!!!RWG4: Durations of rests and tied notes may be interpreted.
!!!RWG: Key is interpreted using the Humdrum key tool.
!!!GTL: 6 Divertimentos ("Sun")
!!!AFT: stage1
!!!END: 1997/04/15
!!!KEY: 1398784136
!!!EMD: Converted from MuseData to Humdrum Dec 16, 2000, by Andreas Kornstaedt using muse2kern.
!!!EMD: Manual editing by Craig Sapp, Nov 2001
